src/lib/packages/icons/src/assets/filled/snapchat.svg

<svg width="24" height="24" viewBox="0 0 24 24" fill="none" xmlns="http://www.w3.org/2000/svg">
<path fill-rule="evenodd" clip-rule="evenodd" d="M20.418 17.6619C19.7878 18.0117 19.4176 18.0616 18.9274 18.2116C18.7573 18.2515 18.6372 18.4114 18.6372 18.5913C18.3771 19.9306 16.7263 19.171 15.6458 19.6807C14.4153 20.1905 13.865 21 12.0042 21C10.1433 21 9.60307 20.1905 8.3725 19.6807C7.30201 19.181 5.68126 19.9106 5.39113 18.6313C5.38113 18.4314 5.27107 18.2415 5.08099 18.2116C4.59076 18.0716 4.06052 17.9617 3.47025 17.5919C2.84996 17.2021 2.83996 16.5325 3.46024 16.2627C3.50026 16.2427 3.54028 16.2227 3.56029 16.2127C4.91091 15.603 6.30155 14.3137 6.69173 12.9745C6.76176 12.7546 6.68172 12.6247 6.55166 12.5447C6.21151 12.3049 5.69127 11.9751 5.38113 11.7652C4.29062 11.1755 4.42068 9.52642 5.78131 9.51643C6.16148 9.51643 6.60169 9.68633 6.92183 9.80626C6.94184 9.80626 6.95185 9.80626 6.95185 9.78628C6.91183 8.60694 6.83179 6.84792 7.37204 5.74853C8.18241 4.00951 10.0133 2.99008 12.0042 3.00007C13.9951 3.00007 15.8059 3.98952 16.6363 5.73854C17.1765 6.80794 17.1065 8.65691 17.0565 9.77628C17.0565 9.79627 17.0765 9.80626 17.0865 9.79627C17.4067 9.67634 17.8469 9.50643 18.227 9.50643C19.0974 9.46645 19.6377 10.3959 19.2375 11.1155C18.8873 11.8051 17.8469 12.105 17.3066 12.6847C17.2766 12.7546 17.2666 12.8146 17.3066 12.9545C17.6968 14.3337 19.1375 15.633 20.5281 16.2527C21.0383 16.4625 21.3084 17.1422 20.418 17.6619Z" fill="currentColor"/>
</svg>

<svg xmlns="http://www.w3.org/2000/svg" width="24" height="24" fill="none"><path fill="currentColor" fill-rule="evenodd" d="M20.418 17.662c-.63.35-1 .4-1.49.55-.17.04-.29.2-.29.38-.26 1.339-1.912.579-2.992 1.089-1.23.51-1.781 1.319-3.642 1.319-1.86 0-2.4-.81-3.631-1.32-1.071-.499-2.692.23-2.982-1.049-.01-.2-.12-.39-.31-.42-.49-.14-1.02-.25-1.61-.62-.621-.389-.631-1.059-.01-1.328l.1-.05c1.35-.61 2.74-1.9 3.13-3.239.07-.22-.01-.35-.14-.43-.34-.24-.86-.569-1.17-.779-1.09-.59-.96-2.239.4-2.249.38 0 .82.17 1.14.29.02 0 .03 0 .03-.02-.04-1.18-.12-2.938.421-4.037.81-1.74 2.641-2.759 4.632-2.749 1.991 0 3.802.99 4.632 2.739.54 1.069.47 2.918.42 4.037 0 .02.02.03.03.02.32-.12.76-.29 1.141-.29.87-.04 1.41.89 1.01 1.61-.35.69-1.39.989-1.93 1.569-.03.07-.04.13 0 .27.39 1.379 1.83 2.678 3.221 3.298.51.21.78.89-.11 1.409Z" clip-rule="evenodd"/></svg>
